; generated by PrusaSlicer 2.5.2+win64 on 2023-06-05 at 16:26:47 UTC


;
;

;
;

;
;
; 

; external perimeters extrusion width = 0.45mm
; perimeters extrusion width = 0.45mm
; infill extrusion width = 0.45mm
; solid infill extrusion width = 0.45mm
; top infill extrusion width = 0.45mm
; first layer extrusion width = 0.50mm

; external perimeters extrusion width = 0.45mm
; perimeters extrusion width = 0.45mm
; infill extrusion width = 0.45mm
; solid infill extrusion width = 0.45mm
; top infill extrusion width = 0.45mm
; first layer extrusion width = 0.50mm

M73 P0 R154
M201 X2500 Y2500 Z200 E2500 ; sets maximum accelerations, mm/sec^2
M203 X200 Y200 Z40 E100 ; sets maximum feedrates, mm / sec
M204 P2000 R1200 T2000 ; sets acceleration (P, T) and retract acceleration (R), mm/sec^2
M205 X8.00 Y8.00 Z2.00 E10.00 ; sets the jerk limits, mm/sec
M205 S0 T0 ; sets the minimum extruding and travel feed rate, mm/sec
M107
;TYPE:Custom
M17 ; enable steppers
M862.3 P "MK4" ; printer model check
M862.1 P0.4 ; nozzle diameter check
M330 SYSLOG
M331 loadcell_raw
M331 loadcell_threshold
M331 loadcell_hysteresis
M331 loadcell_scale
M331 probe_z
M331 probe_z_raw
M331 probe_z_diff
M331 home_diff
M331 fsensor_raw
M331 temp_hbr
M331 temp_bed
M331 temp_noz
M331 temp_brd
M331 ttemp_bed
M331 ttemp_noz
M331 pos_z
M331 fan_speed
M331 fan_hbr_speed
M331 tmc_sg_x
M331 tmc_sg_y
M331 tmc_sg_z
M331 tmc_sg_e

M555 X50.1871 Y39.4158 W154.632 H137.689

G90 ; use absolute coordinates
M92 E380 ; set steps/mm for extruder
M83 ; extruder relative mode

M140 S60 ; set bed temp

M104 S170 ; set extruder temp for bed leveling
M109 R170 ; wait for temp


M84 E ; turn off E motor

G28 ; home all without mesh bed level

; probe to clean the nozzle
G1 X82.1871 Y39.4158 Z5 F4800

M302 S160 ; lower cold extrusion limit to 160C


G1 E-2 F2400 ; retraction


M84 E ; turn off E motor

G29 P9 X50.1871 Y39.4158 W32 H4

M106 S100

G0 X50.1871 Y39.4158 Z40 F10000

M190 S60 ; wait for bed temp

M107

;
; MBL
;
M84 E ; turn off E motor
G29 ; mesh bed leveling
M104 S215 ; set extruder temp
G0 X50.1871 Y38.9158 Z30 F4800

M109 S215 ; wait for extruder temp
G1 Z0.2 F720
G92 E0

M569 S0 E ; set spreadcycle mode for extruder

;
; Extrude purge line
;

G1 E2 F2400 ; deretraction


; move right
G1 X82.1871 E4.8 F1000
; move down
G1 Y37.4158 E0.225 F1000
; move left
G1 X50.1871 E9.6 F800

G92 E0
M221 S100 ; set flow to 100%
G21 ; set units to millimeters
G90 ; use absolute coordinates
M83 ; use relative distances for extrusion
M900 K0.06 ; Filament gcode

M142 S36 ; set heatbreak target temp
M107
;LAYER_CHANGE
;Z:0.2
;HEIGHT:0.2
;BEFORE_LAYER_CHANGE
G92 E0.0
;0.2


G1 E-.8 F2100
G1 Z.2 F720
;AFTER_LAYER_CHANGE
;0.2
; printing object Wheel_try3_right - Part 1.stl id:0 copy 0
G1 Z.4
G1 X132.468 Y111.069 F12000
G1 Z.2 F720
G1 E.8 F1500
M204 P600
;TYPE:Perimeter
;WIDTH:0.499999
G1 F1200
G1 X135.358 Y107.827 E.16507
G1 X138.582 Y104.917 E.16507
G1 X142.102 Y102.372 E.16507
G1 X145.876 Y100.223 E.16507
G1 X149.861 Y98.494 E.16507
G1 X154.009 Y97.206 E.16507
G1 X158.272 Y96.375 E.16507
G1 X162.599 Y96.009 E.16507
G1 X166.942 Y96.113 E.16507
G1 X171.247 Y96.686 E.16507
G1 X175.465 Y97.721 E.16507
G1 X179.547 Y99.206 E.16507
G1 X183.444 Y101.124 E.16507
G1 X187.11 Y103.451 E.16507
G1 X190.504 Y106.162 E.16507
G1 X193.585 Y109.224 E.16507
G1 X196.316 Y112.6 E.16507
G1 X198.667 Y116.253 E.16507
G1 X200.609 Y120.138 E.16507
G1 X202.119 Y124.21 E.16507
G1 X203.18 Y128.422 E.16507
G1 X203.765 Y132.611 E.16077
G1 X203.784 Y132.836 E.00858
G1 X203.911 Y137.065 E.16077
G1 X203.572 Y141.395 E.16507
G1 X202.767 Y145.663 E.16507
G1 X201.505 Y149.819 E.16507
G1 X199.801 Y153.814 E.16507
G1 X197.675 Y157.601 E.16507
G1 X195.152 Y161.137 E.16507
G1 X192.262 Y164.379 E.16507
G1 X189.038 Y167.289 E.16507
G1 X185.518 Y169.834 E.16507
G1 X181.744 Y171.983 E.16507
G1 X177.76 Y173.712 E.16507
G1 X173.612 Y175 E.16507
G1 X169.349 Y175.831 E.16507
G1 X165.021 Y176.197 E.16507
G1 X160.679 Y176.093 E.16507
G1 X156.374 Y175.52 E.16507
G1 X152.155 Y174.485 E.16507
G1 X148.074 Y173 E.16507
G1 X144.177 Y171.082 E.16507
G1 X140.51 Y168.754 E.16507
G1 X137.116 Y166.044 E.16507
G1 X134.036 Y162.982 E.16507
G1 X131.304 Y159.605 E.16507
G1 X128.954 Y155.953 E.16507
G1 X127.012 Y152.068 E.16507
G1 X125.501 Y147.996 E.16507
G1 X124.44 Y143.784 E.16507
G1 X123.84 Y139.483 E.16507
G1 X123.709 Y135.141 E.16507
G1 X124.048 Y130.811 E.16507
G1 X124.853 Y126.543 E.16507
G1 X126.115 Y122.387 E.16507
G1 X127.819 Y118.392 E.16507
G1 X129.945 Y114.605 E.16507
G1 X132.433 Y111.118 E.16279
M204 P1000
G1 X132.11 Y110.784 F12000
M204 P600
;TYPE:External perimeter
G1 F1200
G1 X135.034 Y107.505 E.16696
G1 X138.294 Y104.561 E.16696
G1 X141.854 Y101.987 E.16696
G1 X145.672 Y99.813 E.16696
G1 X149.701 Y98.065 E.16696
G1 X153.897 Y96.762 E.16696
G1 X158.208 Y95.921 E.16696
G1 X162.586 Y95.551 E.16696
G1 X166.977 Y95.656 E.16696
G1 X171.332 Y96.236 E.16696
G1 X175.598 Y97.283 E.16696
G1 X179.726 Y98.785 E.16696
G1 X183.668 Y100.724 E.16696
G1 X187.376 Y103.079 E.16696
G1 X190.809 Y105.82 E.16695
G1 X193.925 Y108.917 E.16696
G1 X196.687 Y112.332 E.16696
G1 X199.065 Y116.026 E.16696
G1 X201.029 Y119.956 E.16696
G1 X202.556 Y124.074 E.16696
G1 X203.63 Y128.334 E.16696
G1 X204.217 Y132.548 E.16172
G1 X204.24 Y132.823 E.01047
G1 X204.369 Y137.076 E.16172
G1 X204.026 Y141.455 E.16696
G1 X203.212 Y145.772 E.16696
G1 X201.935 Y149.975 E.16696
G1 X200.212 Y154.016 E.16696
G1 X198.062 Y157.847 E.16696
G1 X195.51 Y161.422 E.16696
G1 X192.587 Y164.701 E.16696
G1 X189.326 Y167.645 E.16696
G1 X185.766 Y170.219 E.16696
G1 X181.949 Y172.393 E.16696
G1 X177.919 Y174.141 E.16696
G1 X173.724 Y175.443 E.16696
G1 X169.412 Y176.285 E.16696
G1 X165.035 Y176.655 E.16696
G1 X160.643 Y176.549 E.16696
G1 X156.289 Y175.97 E.16696
G1 X152.022 Y174.923 E.16696
G1 X147.894 Y173.421 E.16696
G1 X143.953 Y171.481 E.16696
G1 X140.244 Y169.127 E.16696
G1 X136.812 Y166.386 E.16695
G1 X133.696 Y163.289 E.16696
G1 X130.933 Y159.874 E.16696
G1 X128.556 Y156.18 E.16696
G1 X126.592 Y152.25 E.16696
G1 X125.064 Y148.132 E.16696
G1 X123.991 Y143.872 E.16696
G1 X123.384 Y139.521 E.16696
G1 X123.252 Y135.13 E.16696
G1 X123.594 Y130.751 E.16696
G1 X124.409 Y126.434 E.16696
G1 X125.685 Y122.231 E.16696
G1 X127.409 Y118.19 E.16696
G1 X129.559 Y114.359 E.16696
G1 X132.076 Y110.832 E.16468
M204 P1000
G1 X132.506 Y110.843 F12000
G1 E-.64 F2100
;WIPE_START
G1 F9600
G1 X132.561 Y110.286 E-.152
;WIPE_END
G1 E-.008 F2100
G1 Z.4 F720
G1 X180.782 Y104.405 F12000
G1 Z.2 F720
G1 E.8 F1500
M204 P600
;TYPE:Perimeter
G1 F1200
G1 X181.334 Y104.718 E.02409
G1 X184.092 Y106.41 E.12299
G1 X186.962 Y108.589 E.13692
G1 X189.646 Y111.093 E.13953
G1 X192.019 Y113.804 E.13692
G1 X194.109 Y116.738 E.13692
G1 X195.864 Y119.806 E.13432
G1 X197.334 Y123.095 E.13692
G1 X198.467 Y126.515 E.13692
G1 X199.264 Y130.099 E.13953
G1 X199.711 Y133.854 E.14372
G1 X199.704 Y134.063 E.00794
G1 X199.637 Y134.254 E.00769
G1 X199.398 Y134.514 E.01345
G1 X199.102 Y134.617 E.01191
G1 X198.993 Y134.619 E.00412
G1 X168.951 Y133.544 E1.14251
G1 X168.682 Y133.478 E.01055
G1 X168.436 Y133.282 E.01195
G1 X168.312 Y133.028 E.01075
G1 X168.308 Y132.705 E.01228
G1 X168.473 Y132.283 E.01722
G1 X179.877 Y104.753 E1.13254
G1 X179.972 Y104.592 E.00712
G1 X180.265 Y104.377 E.01381
G1 X180.455 Y104.334 E.0074
G1 X180.701 Y104.359 E.00941
G1 X180.73 Y104.376 E.00127
M204 P1000
G1 X180.61 Y104.812 F12000
M204 P600
;TYPE:External perimeter
G1 F1200
G1 X183.856 Y106.802 E.14469
G1 X186.685 Y108.953 E.13505
G1 X189.303 Y111.394 E.13606
G1 X191.647 Y114.069 E.13519
G1 X193.712 Y116.965 E.13519
G1 X195.467 Y120.033 E.13432
G1 X196.916 Y123.281 E.13519
G1 X198.033 Y126.658 E.13519
G1 X198.81 Y130.153 E.13606
G1 X199.257 Y133.908 E.14372
G1 X199.233 Y134.041 E.00515
G1 X199.118 Y134.146 E.00591
G1 X199.01 Y134.163 E.00417
G1 X168.968 Y133.088 E1.14251
G1 X168.808 Y133.014 E.00668
G1 X168.747 Y132.857 E.00641
G1 X168.895 Y132.458 E.01616
G1 X180.298 Y104.929 E1.13248
G1 X180.428 Y104.804 E.00685
G1 X180.55 Y104.81 E.00466
M204 P1000
G1 X180.889 Y104.525 F12000
G1 E-.64 F2100
;WIPE_START
G1 F9600
G1 X181.177 Y105.187 E-.152
;WIPE_END
G1 E-.008 F2100
G1 Z.4 F720
G1 X176.14 Y169.192 F12000
G1 Z.2 F720
G1 E.8 F1500
M204 P600
;TYPE:Perimeter
G1 F1200
G1 X176.093 Y169.106 E.00372
G1 X167.832 Y140.202 E1.14251
G1 X167.814 Y139.906 E.01128
G1 X167.916 Y139.641 E.01078
G1 X168.148 Y139.42 E.01218
G1 X168.383 Y139.337 E.00945
G1 X168.879 Y139.356 E.01888
G1 X198.591 Y141.695 E1.13272
G1 X198.91 Y141.805 E.01284
G1 X199.044 Y141.92 E.00671
G1 X199.154 Y142.085 E.00754
G1 X199.216 Y142.302 E.00858
G1 X199.201 Y142.539 E.00902
G1 X198.317 Y146.217 E.14375
G1 X197.106 Y149.682 E.13953
G1 X195.612 Y152.885 E.13432
G1 X193.773 Y155.983 E.13692
G1 X191.59 Y158.935 E.13953
G1 X189.215 Y161.552 E.13432
G1 X186.541 Y163.966 E.13693
G1 X183.634 Y166.103 E.13711
G1 X180.537 Y167.934 E.13674
G1 X177.043 Y169.552 E.14633
G1 X176.821 Y169.612 E.00876
G1 X176.483 Y169.558 E.013
G1 X176.248 Y169.39 E.01101
G1 X176.169 Y169.245 E.00627
M204 P1000
G1 X176.533 Y168.98 F12000
M204 P600
;TYPE:External perimeter
G1 F1200
G1 X168.272 Y140.076 E1.14251
G1 X168.284 Y139.918 E.00605
G1 X168.408 Y139.801 E.00647
G1 X168.843 Y139.812 E.01653
M73 P0 R153
G1 X198.553 Y142.151 E1.13267
G1 X198.704 Y142.226 E.00641
G1 X198.762 Y142.353 E.00531
G1 X198.759 Y142.421 E.00258
G1 X197.873 Y146.11 E.14418
G1 X196.692 Y149.489 E.13606
G1 X195.198 Y152.692 E.13432
G1 X193.38 Y155.75 E.13519
G1 X191.252 Y158.628 E.13606
G1 X188.876 Y161.244 E.13432
G1 X186.235 Y163.626 E.13519
G1 X183.367 Y165.733 E.13525
G1 X180.302 Y167.542 E.13526
G1 X176.852 Y169.137 E.14446
G1 X176.665 Y169.139 E.0071
G1 X176.563 Y169.03 E.00567
M204 P1000
G1 X176.133 Y168.994 F12000
G1 E-.64 F2100
;WIPE_START
G1 F9600
G1 X176.362 Y168.327 E-.152
;WIPE_END
G1 E-.008 F2100
G1 Z.4 F720
G1 X161.688 Y134.996 F12000
G1 Z.2 F720
G1 E.8 F1500
M204 P600
;TYPE:Perimeter
G1 F1200
G1 X161.886 Y134.661 E.01479
G1 X162.241 Y134.281 E.01977
G1 X162.669 Y133.986 E.01976
G1 X163.151 Y133.791 E.01976
G1 X163.645 Y133.705 E.01904
G1 X164.178 Y133.727 E.02029
G1 X164.683 Y133.863 E.01986
G1 X165.146 Y134.104 E.01984
G1 X165.544 Y134.437 E.01976
G1 X165.862 Y134.849 E.01976
G1 X166.084 Y135.32 E.01976
G1 X166.199 Y135.827 E.01976
G1 X166.202 Y136.347 E.01976
G1 X166.094 Y136.855 E.01976
G1 X165.888 Y137.312 E.01904
G1 X165.583 Y137.724 E.0195
G1 X165.173 Y138.084 E.02072
G1 X164.716 Y138.331 E.01976
G1 X164.215 Y138.473 E.01976
G1 X163.696 Y138.505 E.01976
G1 X163.183 Y138.424 E.01976
G1 X162.698 Y138.235 E.01976
G1 X162.266 Y137.946 E.01976
G1 X161.906 Y137.571 E.01976
G1 X161.635 Y137.127 E.01976
G1 X161.465 Y136.636 E.01976
G1 X161.406 Y136.119 E.01976
G1 X161.458 Y135.602 E.01976
G1 X161.621 Y135.108 E.01976
G1 X161.657 Y135.047 E.00269
M204 P1000
G1 X162.233 Y134.989 F12000
M204 P600
;TYPE:External perimeter
G1 F1200
G1 X162.355 Y134.815 E.00808
G1 X162.604 Y134.572 E.01321
G1 X162.917 Y134.371 E.01415
G1 X163.357 Y134.207 E.01786
G1 X163.757 Y134.155 E.01533
G1 X164.196 Y134.192 E.01673
G1 X164.598 Y134.32 E.01602
G1 X164.962 Y134.531 E.01602
G1 X165.273 Y134.815 E.01602
G1 X165.516 Y135.16 E.01602
G1 X165.679 Y135.549 E.01602
G1 X165.754 Y135.963 E.01602
G1 X165.739 Y136.385 E.01602
G1 X165.634 Y136.792 E.016
G1 X165.452 Y137.152 E.01533
G1 X165.175 Y137.494 E.01673
G1 X164.844 Y137.755 E.01602
G1 X164.465 Y137.939 E.01602
G1 X164.055 Y138.037 E.01602
G1 X163.633 Y138.044 E.01602
G1 X163.169 Y137.939 E.0181
G1 X162.835 Y137.79 E.0139
G1 X162.495 Y137.541 E.01602
G1 X162.216 Y137.225 E.01602
G1 X162.012 Y136.856 E.01602
G1 X161.893 Y136.452 E.01602
G1 X161.862 Y136.031 E.01602
G1 X161.923 Y135.614 E.01602
G1 X162.072 Y135.22 E.01602
G1 X162.199 Y135.038 E.00842
M204 P1000
G1 X162.134 Y134.801 F12000
G1 E-.64 F2100
;WIPE_START
G1 F9600
G1 X162.355 Y134.815 E-.05666
G1 X162.604 Y134.572 E-.07221
G1 X162.697 Y134.512 E-.02313
;WIPE_END
G1 E-.008 F2100
G1 Z.4 F720
G1 X162.497 Y130.837 F12000
G1 Z.2 F720
G1 E.8 F1500
M204 P600
;TYPE:Perimeter
G1 F1200
G1 X162.43 Y130.865 E.00273
G1 X162.154 Y130.853 E.01049
G1 X161.876 Y130.709 E.0119
G1 X138.96 Y111.135 E1.14544
G1 X138.766 Y110.861 E.01274
G1 X138.73 Y110.504 E.01364
G1 X138.866 Y110.193 E.0129
G1 X138.961 Y110.094 E.00524
G1 X141.838 Y107.638 E.14375
G1 X144.855 Y105.546 E.13953
G1 X147.946 Y103.833 E.13432
G1 X151.255 Y102.408 E.13692
G1 X154.693 Y101.319 E.13704
G1 X158.216 Y100.582 E.13681
G1 X158.779 Y100.519 E.02154
G1 X161.798 Y100.201 E.11539
G1 X165.347 Y100.18 E.13487
G1 X169.056 Y100.529 E.14157
G1 X172.765 Y101.264 E.14372
G1 X172.969 Y101.339 E.00826
G1 X173.229 Y101.599 E.01396
G1 X173.314 Y101.868 E.01074
G1 X173.272 Y102.183 E.01208
G1 X162.966 Y130.423 E1.14251
G1 X162.899 Y130.558 E.00574
G1 X162.72 Y130.745 E.00983
G1 X162.552 Y130.814 E.00691
M204 P1000
G1 X162.377 Y130.409 F12000
M204 P600
;TYPE:External perimeter
G1 F1200
G1 X162.21 Y130.387 E.00641
G1 X161.915 Y130.141 E.01459
G1 X139.257 Y110.788 E1.13248
G1 X139.179 Y110.642 E.00631
G1 X139.226 Y110.474 E.00661
G1 X142.135 Y107.986 E.14549
G1 X145.077 Y105.946 E.13606
G1 X148.168 Y104.233 E.13432
G1 X151.435 Y102.827 E.13519
G1 X154.828 Y101.756 E.13523
G1 X158.312 Y101.029 E.13526
G1 X158.827 Y100.974 E.01969
G1 X161.846 Y100.655 E.11539
G1 X165.349 Y100.637 E.13314
G1 X168.967 Y100.977 E.1381
G1 X172.676 Y101.712 E.14372
G1 X172.799 Y101.78 E.00533
G1 X172.86 Y101.954 E.00699
G1 X172.842 Y102.027 E.00285
G1 X162.536 Y130.266 E1.14251
G1 X162.514 Y130.311 E.00191
G1 X162.426 Y130.374 E.00413
M204 P1000
G1 X162.316 Y130.567 F12000
G1 E-.64 F2100
;WIPE_START
G1 F9600
G1 X162.21 Y130.387 E-.04495
G1 X161.915 Y130.141 E-.07979
G1 X161.815 Y130.056 E-.02726
;WIPE_END
G1 E-.008 F2100
G1 Z.4 F720
G1 X157.843 Y134.913 F12000
G1 Z.2 F720
G1 E.8 F1500
M204 P600
;TYPE:Perimeter
G1 F1200
G1 X158.147 Y135.151 E.01466
G1 X158.325 Y135.361 E.01047
G1 X158.404 Y135.601 E.0096
G1 X158.388 Y135.863 E.00998
G1 X158.276 Y136.098 E.00988
G1 X158.083 Y136.275 E.00999
G1 X132.385 Y152.022 E1.14544
G1 X132.214 Y152.096 E.00708
G1 X131.865 Y152.102 E.01328
G1 X131.682 Y152.027 E.00753
G1 X131.478 Y151.844 E.01042
G1 X131.395 Y151.698 E.00636
G1 X129.949 Y148.203 E.14375
G1 X128.891 Y144.688 E.13953
G1 X128.208 Y141.15 E.13692
G1 X127.884 Y137.631 E.13432
G1 X127.916 Y133.96 E.13953
G1 X128.299 Y130.447 E.13432
G1 X129.043 Y126.922 E.13693
G1 X130.137 Y123.489 E.13692
G1 X131.598 Y120.121 E.13953
G1 X133.444 Y116.819 E.14377
G1 X133.586 Y116.643 E.00861
G1 X133.748 Y116.536 E.00737
G1 X134.083 Y116.471 E.01298
G1 X134.384 Y116.561 E.01194
G1 X134.474 Y116.623 E.00417
G1 X157.796 Y134.876 E1.12557
M204 P1000
G1 X157.865 Y135.511 F12000
M204 P600
;TYPE:External perimeter
G1 F1200
G1 X157.951 Y135.661 E.00657
G1 X157.908 Y135.826 E.0065
G1 X157.558 Y136.061 E.016
G1 X132.147 Y151.631 E1.13267
G1 X131.974 Y151.658 E.00667
G1 X131.845 Y151.572 E.0059
G1 X130.371 Y148.029 E.14586
G1 X129.34 Y144.601 E.13606
G1 X128.663 Y141.109 E.13519
G1 X128.339 Y137.589 E.13432
G1 X128.37 Y134.01 E.13606
G1 X128.754 Y130.497 E.13432
G1 X129.491 Y127.017 E.13519
G1 X130.572 Y123.628 E.13519
G1 X131.997 Y120.344 E.13606
G1 X133.843 Y117.043 E.14374
G1 X133.944 Y116.949 E.00526
G1 X134.128 Y116.943 E.00701
G1 X134.193 Y116.983 E.00288
G1 X157.818 Y135.474 E1.14023
M204 P1000
G1 X158.037 Y135.489 F12000
G1 E-.64 F2100
;WIPE_START
G1 F9600
G1 X157.951 Y135.661 E-.04768
G1 X157.908 Y135.826 E-.03554
G1 X157.633 Y136.011 E-.06878
;WIPE_END
G1 E-.008 F2100
G1 Z.4 F720
G1 X162.07 Y141.348 F12000
G1 Z.2 F720
G1 E.8 F1500
M204 P600
;TYPE:Perimeter
G1 F1200
G1 X162.123 Y141.407 E.003
G1 X162.281 Y141.924 E.02056
G1 X169.239 Y170.909 E1.1329
G1 X169.252 Y171.15 E.00919
G1 X169.153 Y171.432 E.01135
G1 X168.883 Y171.678 E.01389
G1 X168.626 Y171.751 E.01016
G1 X164.855 Y172.046 E.14375
G1 X161.251 Y171.97 E.13698
G1 X161.095 Y171.954 E.00598
G1 X157.677 Y171.534 E.13089
G1 X154.162 Y170.743 E.13692
G1 X150.744 Y169.604 E.13693
G1 X147.396 Y168.097 E.13953
