; generated by PrusaSlicer 2.5.2+win64 on 2023-06-05 at 15:21:18 UTC


;
;

;
;

;
;
; 

; external perimeters extrusion width = 0.45mm
; perimeters extrusion width = 0.45mm
; infill extrusion width = 0.45mm
; solid infill extrusion width = 0.45mm
; top infill extrusion width = 0.45mm
; first layer extrusion width = 0.50mm

M73 P0 R77
M201 X2500 Y2500 Z200 E2500 ; sets maximum accelerations, mm/sec^2
M203 X200 Y200 Z40 E100 ; sets maximum feedrates, mm / sec
M204 P2000 R1200 T2000 ; sets acceleration (P, T) and retract acceleration (R), mm/sec^2
M205 X8.00 Y8.00 Z2.00 E10.00 ; sets the jerk limits, mm/sec
M205 S0 T0 ; sets the minimum extruding and travel feed rate, mm/sec
M107
;TYPE:Custom
M17 ; enable steppers
M862.3 P "MK4" ; printer model check
M862.1 P0.4 ; nozzle diameter check
M330 SYSLOG
M331 loadcell_raw
M331 loadcell_threshold
M331 loadcell_hysteresis
M331 loadcell_scale
M331 probe_z
M331 probe_z_raw
M331 probe_z_diff
M331 home_diff
M331 fsensor_raw
M331 temp_hbr
M331 temp_bed
M331 temp_noz
M331 temp_brd
M331 ttemp_bed
M331 ttemp_noz
M331 pos_z
M331 fan_speed
M331 fan_hbr_speed
M331 tmc_sg_x
M331 tmc_sg_y
M331 tmc_sg_z
M331 tmc_sg_e

M555 X89.8794 Y59.9582 W81.9217 H86.042

G90 ; use absolute coordinates
M92 E380 ; set steps/mm for extruder
M83 ; extruder relative mode

M140 S60 ; set bed temp

M104 S170 ; set extruder temp for bed leveling
M109 R170 ; wait for temp


M84 E ; turn off E motor

G28 ; home all without mesh bed level

; probe to clean the nozzle
G1 X121.879 Y59.9582 Z5 F4800

M302 S160 ; lower cold extrusion limit to 160C


G1 E-2 F2400 ; retraction


M84 E ; turn off E motor

G29 P9 X89.8794 Y59.9582 W32 H4

M106 S100

G0 X89.8794 Y59.9582 Z40 F10000

M190 S60 ; wait for bed temp

M107

;
; MBL
;
M84 E ; turn off E motor
G29 ; mesh bed leveling
M104 S215 ; set extruder temp
G0 X89.8794 Y59.4582 Z30 F4800

M109 S215 ; wait for extruder temp
G1 Z0.2 F720
G92 E0

M569 S0 E ; set spreadcycle mode for extruder

;
; Extrude purge line
;

G1 E2 F2400 ; deretraction


; move right
G1 X121.879 E4.8 F1000
; move down
G1 Y57.9582 E0.225 F1000
; move left
G1 X89.8794 E9.6 F800

G92 E0
M221 S100 ; set flow to 100%
G21 ; set units to millimeters
G90 ; use absolute coordinates
M83 ; use relative distances for extrusion
M900 K0.06 ; Filament gcode

M142 S36 ; set heatbreak target temp
M107
;LAYER_CHANGE
;Z:0.2
;HEIGHT:0.2
;BEFORE_LAYER_CHANGE
G92 E0.0
;0.2


G1 E-.8 F2100
G1 Z.2 F720
;AFTER_LAYER_CHANGE
;0.2
; printing object Wheel_try3_right - Part 1.stl id:0 copy 0
G1 Z.4
G1 X143.648 Y142.992 F12000
G1 Z.2 F720
G1 E.8 F1500
M204 P600
;TYPE:Perimeter
;WIDTH:0.499999
G1 F1200
G1 X139.463 Y144.154 E.16507
G1 X135.177 Y144.857 E.16507
G1 X130.84 Y145.092 E.16507
G1 X126.503 Y144.857 E.16507
G1 X122.217 Y144.154 E.16507
G1 X118.032 Y142.992 E.16507
G1 X113.997 Y141.384 E.16507
G1 X110.16 Y139.35 E.16507
G1 X106.565 Y136.913 E.16507
G1 X103.255 Y134.101 E.16507
G1 X100.268 Y130.948 E.16507
G1 X97.639 Y127.49 E.16507
G1 X95.4 Y123.768 E.16507
G1 X93.577 Y119.826 E.16507
G1 X92.19 Y115.711 E.16507
G1 X91.256 Y111.469 E.16507
G1 X90.786 Y107.151 E.16507
G1 X90.786 Y102.808 E.16507
G1 X91.256 Y98.49 E.16507
G1 X92.19 Y94.248 E.16507
G1 X93.577 Y90.132 E.16507
G1 X95.4 Y86.19 E.16507
G1 X97.639 Y82.469 E.16507
G1 X100.268 Y79.011 E.16507
G1 X103.255 Y75.858 E.16507
G1 X106.565 Y73.046 E.16507
G1 X110.16 Y70.608 E.16507
G1 X113.997 Y68.574 E.16507
G1 X118.032 Y66.966 E.16507
G1 X122.217 Y65.804 E.16507
G1 X126.503 Y65.102 E.16507
G1 X130.84 Y64.867 E.16507
G1 X135.177 Y65.102 E.16507
G1 X139.463 Y65.804 E.16507
G1 X143.648 Y66.966 E.16507
G1 X147.683 Y68.574 E.16507
G1 X151.52 Y70.608 E.16507
G1 X155.115 Y73.046 E.16507
G1 X158.426 Y75.858 E.16507
G1 X161.413 Y79.011 E.16507
G1 X164.041 Y82.469 E.16507
G1 X166.28 Y86.19 E.16507
G1 X168.104 Y90.132 E.16507
G1 X169.491 Y94.248 E.16507
G1 X170.424 Y98.49 E.16507
G1 X170.882 Y102.695 E.16076
G1 X170.894 Y102.921 E.00862
G1 X170.894 Y107.151 E.16076
G1 X170.424 Y111.469 E.16507
G1 X169.491 Y115.711 E.16507
G1 X168.104 Y119.826 E.16507
G1 X166.28 Y123.768 E.16507
G1 X164.041 Y127.49 E.16507
G1 X161.413 Y130.948 E.16507
G1 X158.426 Y134.101 E.16507
G1 X155.115 Y136.913 E.16507
G1 X151.52 Y139.35 E.16507
G1 X147.683 Y141.384 E.16507
G1 X143.704 Y142.97 E.16279
M204 P1000
G1 X143.794 Y143.426 F12000
M204 P600
;TYPE:External perimeter
G1 F1200
G1 X139.562 Y144.601 E.16696
G1 X135.227 Y145.312 E.16696
G1 X130.84 Y145.55 E.16696
G1 X126.454 Y145.312 E.16696
G1 X122.119 Y144.601 E.16696
G1 X117.886 Y143.426 E.16696
G1 X113.805 Y141.8 E.16696
G1 X109.924 Y139.742 E.16696
G1 X106.288 Y137.277 E.16696
G1 X102.94 Y134.433 E.16696
G1 X99.919 Y131.244 E.16696
G1 X97.261 Y127.747 E.16696
G1 X94.996 Y123.983 E.16696
G1 X93.151 Y119.996 E.16696
G1 X91.749 Y115.833 E.16696
G1 X90.804 Y111.543 E.16696
G1 X90.329 Y107.176 E.16696
G1 X90.329 Y102.783 E.16696
G1 X90.804 Y98.416 E.16696
G1 X91.749 Y94.126 E.16696
G1 X93.151 Y89.963 E.16696
G1 X94.996 Y85.976 E.16696
G1 X97.261 Y82.212 E.16696
G1 X99.919 Y78.715 E.16696
G1 X102.94 Y75.525 E.16696
G1 X106.288 Y72.681 E.16696
G1 X109.924 Y70.216 E.16696
G1 X113.805 Y68.159 E.16696
G1 X117.886 Y66.533 E.16696
G1 X122.119 Y65.357 E.16696
G1 X126.454 Y64.647 E.16696
G1 X130.84 Y64.409 E.16696
G1 X135.227 Y64.647 E.16696
G1 X139.562 Y65.357 E.16696
G1 X143.794 Y66.533 E.16696
G1 X147.875 Y68.159 E.16696
G1 X151.756 Y70.216 E.16696
G1 X155.392 Y72.681 E.16696
G1 X158.74 Y75.525 E.16696
G1 X161.761 Y78.715 E.16696
G1 X164.42 Y82.212 E.16696
G1 X166.685 Y85.976 E.16696
G1 X168.529 Y89.963 E.16696
G1 X169.932 Y94.126 E.16696
G1 X170.876 Y98.416 E.16696
G1 X171.336 Y102.645 E.1617
G1 X171.351 Y102.921 E.0105
G1 X171.351 Y107.176 E.1617
G1 X170.876 Y111.543 E.16696
G1 X169.932 Y115.833 E.16696
G1 X168.529 Y119.996 E.16696
G1 X166.685 Y123.983 E.16696
G1 X164.42 Y127.747 E.16696
G1 X161.761 Y131.244 E.16696
G1 X158.74 Y134.433 E.16696
G1 X155.392 Y137.277 E.16696
G1 X151.756 Y139.742 E.16696
G1 X147.875 Y141.8 E.16696
G1 X143.85 Y143.404 E.16468
M204 P1000
G1 X143.494 Y143.161 F12000
G1 E-.64 F2100
;WIPE_START
G1 F9600
G1 X143.146 Y143.6 E-.152
;WIPE_END
G1 E-.008 F2100
G1 Z.4 F720
G1 X154.986 Y78.354 F12000
G1 Z.2 F720
G1 E.8 F1500
M204 P600
;TYPE:Perimeter
G1 F1200
G1 X155.073 Y78.394 E.00363
G1 X157.763 Y81.142 E.14617
G1 X160.013 Y83.956 E.13692
G1 X162.004 Y87.04 E.13953
G1 X163.643 Y90.249 E.13692
G1 X164.952 Y93.605 E.13692
G1 X165.904 Y97.009 E.13432
G1 X166.526 Y100.557 E.13692
G1 X166.789 Y104.15 E.13692
G1 X166.686 Y107.82 E.13953
G1 X166.203 Y111.571 E.14372
G1 X166.145 Y111.771 E.00794
G1 X166.033 Y111.94 E.00769
G1 X165.737 Y112.134 E.01345
G1 X165.425 Y112.162 E.01191
G1 X165.319 Y112.138 E.00412
G1 X136.451 Y103.754 E1.14251
G1 X136.153 Y103.577 E.01318
G1 X136.008 Y103.358 E.00998
G1 X135.956 Y103.098 E.01007
G1 X136.032 Y102.783 E.01228
G1 X136.295 Y102.414 E.01722
G1 X154.08 Y78.506 E1.13254
G1 X154.212 Y78.372 E.00712
G1 X154.548 Y78.236 E.01381
G1 X154.743 Y78.24 E.0074
G1 X154.932 Y78.328 E.00791
M204 P1000
G1 X154.777 Y78.742 F12000
M204 P600
;TYPE:External perimeter
G1 F1200
G1 X157.438 Y81.464 E.14469
G1 X159.656 Y84.241 E.13505
G1 X161.598 Y87.249 E.13606
G1 X163.217 Y90.415 E.13519
G1 X164.512 Y93.728 E.13519
G1 X165.464 Y97.132 E.13432
G1 X166.075 Y100.636 E.13519
G1 X166.333 Y104.183 E.13519
G1 X166.233 Y107.762 E.13606
G1 X165.749 Y111.512 E.14372
G1 X165.693 Y111.635 E.00515
G1 X165.556 Y111.709 E.00591
G1 X165.447 Y111.699 E.00417
G1 X136.578 Y103.316 E1.14251
G1 X136.441 Y103.205 E.00668
G1 X136.421 Y103.038 E.00641
G1 X136.661 Y102.687 E.01616
G1 X154.446 Y78.779 E1.13249
G1 X154.602 Y78.689 E.00685
G1 X154.719 Y78.725 E.00466
M204 P1000
G1 X155.117 Y78.532 F12000
M73 P1 R77
G1 E-.64 F2100
;WIPE_START
G1 F9600
G1 X155.235 Y79.244 E-.152
;WIPE_END
G1 E-.008 F2100
G1 Z.4 F720
G1 X134.711 Y140.078 F12000
G1 Z.2 F720
G1 E.8 F1500
M204 P600
;TYPE:Perimeter
G1 F1200
G1 X134.687 Y139.983 E.00372
G1 X133.739 Y109.937 E1.14251
G1 X133.794 Y109.645 E.01128
G1 X133.957 Y109.413 E.01078
G1 X134.236 Y109.256 E.01218
G1 X134.484 Y109.232 E.00945
G1 X134.643 Y109.266 E.00619
G1 X163.2 Y118.901 E1.14544
G1 X163.483 Y119.085 E.01284
G1 X163.585 Y119.229 E.00671
G1 X163.651 Y119.416 E.00754
G1 X163.658 Y119.642 E.00858
G1 X163.586 Y119.868 E.00902
G1 X161.83 Y123.218 E.14375
G1 X159.809 Y126.283 E.13953
G1 X157.577 Y129.024 E.13432
G1 X155.075 Y131.54 E.13487
G1 X152.199 Y133.907 E.14157
G1 X149.256 Y135.864 E.13432
G1 X146.073 Y137.552 E.13692
G1 X142.733 Y138.914 E.13711
G1 X139.282 Y139.933 E.13674
G1 X135.499 Y140.648 E.14633
G1 X135.269 Y140.652 E.00876
G1 X134.954 Y140.517 E.013
G1 X134.767 Y140.296 E.01101
G1 X134.726 Y140.136 E.00627
M204 P1000
G1 X135.144 Y139.969 F12000
M204 P600
;TYPE:External perimeter
G1 F1200
G1 X134.196 Y109.922 E1.14251
G1 X134.246 Y109.771 E.00605
G1 X134.395 Y109.688 E.00647
G1 X134.497 Y109.699 E.0039
M73 P1 R76
G1 X163.052 Y119.333 E1.14539
G1 X163.181 Y119.443 E.00641
G1 X163.205 Y119.581 E.00531
G1 X163.181 Y119.656 E.00301
G1 X161.425 Y123.006 E.14375
G1 X159.454 Y125.994 E.13606
G1 X157.223 Y128.735 E.13432
G1 X154.752 Y131.218 E.13314
G1 X151.946 Y133.526 E.13809
G1 X149.003 Y135.483 E.13432
G1 X145.86 Y137.148 E.13519
G1 X142.564 Y138.49 E.13525
G1 X139.15 Y139.495 E.13526
G1 X135.415 Y140.199 E.14446
G1 X135.233 Y140.155 E.0071
G1 X135.161 Y140.025 E.00567
M204 P1000
G1 X134.753 Y139.884 F12000
G1 E-.64 F2100
;WIPE_START
G1 F9600
G1 X135.137 Y139.293 E-.152
;WIPE_END
G1 E-.008 F2100
G1 Z.4 F720
G1 X129.51 Y102.985 F12000
G1 Z.2 F720
G1 E.8 F1500
M204 P600
;TYPE:Perimeter
G1 F1200
G1 X129.898 Y102.767 E.01692
G1 X130.319 Y102.629 E.01684
G1 X130.82 Y102.573 E.01913
G1 X131.358 Y102.628 E.02057
G1 X131.856 Y102.797 E.01998
G1 X132.333 Y103.092 E.0213
G1 X132.72 Y103.48 E.02084
G1 X132.998 Y103.919 E.01976
G1 X133.176 Y104.408 E.01976
G1 X133.244 Y104.923 E.01976
G1 X133.2 Y105.441 E.01976
G1 X133.045 Y105.938 E.01976
G1 X132.789 Y106.388 E.01969
G1 X132.455 Y106.76 E.01899
G1 X132.016 Y107.077 E.02059
G1 X131.537 Y107.28 E.01976
G1 X131.041 Y107.376 E.01923
G1 X130.507 Y107.361 E.0203
G1 X130.003 Y107.233 E.01976
G1 X129.538 Y107 E.01976
G1 X129.134 Y106.673 E.01977
G1 X128.809 Y106.267 E.01976
G1 X128.582 Y105.808 E.01944
G1 X128.456 Y105.295 E.02009
G1 X128.444 Y104.775 E.01976
G1 X128.544 Y104.265 E.01976
G1 X128.752 Y103.788 E.01976
G1 X129.056 Y103.367 E.01976
G1 X129.458 Y103.014 E.02031
M204 P1000
G1 X129.806 Y103.339 F12000
M204 P600
;TYPE:External perimeter
G1 F1200
G1 X130.044 Y103.2 E.01049
G1 X130.42 Y103.075 E.01505
G1 X130.846 Y103.031 E.01628
G1 X131.283 Y103.081 E.01673
G1 X131.681 Y103.221 E.01602
G1 X132.039 Y103.443 E.01602
G1 X132.342 Y103.736 E.01602
G1 X132.574 Y104.088 E.01602
G1 X132.725 Y104.482 E.01602
G1 X132.788 Y104.898 E.01602
G1 X132.76 Y105.319 E.01602
G1 X132.642 Y105.724 E.01602
G1 X132.44 Y106.093 E.016
G1 X132.176 Y106.398 E.01533
G1 X131.824 Y106.662 E.01673
G1 X131.439 Y106.834 E.01602
G1 X131.026 Y106.919 E.01602
G1 X130.605 Y106.914 E.01602
G1 X130.195 Y106.818 E.01602
G1 X129.77 Y106.603 E.01811
G1 X129.482 Y106.377 E.01389
G1 X129.213 Y106.053 E.01602
G1 X129.021 Y105.678 E.01602
G1 X128.913 Y105.27 E.01602
G1 X128.895 Y104.849 E.01602
G1 X128.969 Y104.434 E.01602
G1 X129.13 Y104.044 E.01602
G1 X129.371 Y103.699 E.01602
G1 X129.754 Y103.369 E.01921
M204 P1000
G1 X129.779 Y103.064 F12000
G1 E-.64 F2100
;WIPE_START
G1 F9600
G1 X130.044 Y103.2 E-.06981
G1 X130.419 Y103.075 E-.08219
;WIPE_END
G1 E-.008 F2100
G1 Z.4 F720
G1 X130.515 Y99.466 F12000
G1 Z.2 F720
G1 E.8 F1500
M204 P600
;TYPE:Perimeter
G1 F1200
G1 X130.323 Y99.328 E.00898
G1 X130.086 Y98.999 E.01538
G1 X112.844 Y74.696 E1.13254
G1 X112.723 Y74.383 E.01274
G1 X112.775 Y74.028 E.01364
G1 X112.983 Y73.76 E.0129
G1 X113.1 Y73.687 E.00524
G1 X116.49 Y72.008 E.14375
G1 X119.926 Y70.717 E.13953
G1 X123.409 Y69.797 E.13693
G1 X126.899 Y69.237 E.13432
G1 X130.445 Y69.025 E.13499
G1 X134.094 Y69.168 E.13881
G1 X134.657 Y69.245 E.02158
G1 X137.662 Y69.674 E.11539
G1 X141.161 Y70.534 E.13692
G1 X144.619 Y71.765 E.13953
G1 X148.037 Y73.384 E.14372
G1 X148.216 Y73.507 E.00826
G1 X148.404 Y73.823 E.01396
G1 X148.421 Y74.105 E.01074
G1 X148.358 Y74.306 E.00803
G1 X148.303 Y74.4 E.00412
G1 X131.409 Y99.265 E1.14251
G1 X131.166 Y99.484 E.01246
G1 X130.899 Y99.563 E.01057
G1 X130.582 Y99.514 E.0122
G1 X130.564 Y99.501 E.00085
M204 P1000
G1 X130.734 Y99.081 F12000
M204 P600
;TYPE:External perimeter
G1 F1200
G1 X130.459 Y98.735 E.01679
G1 X113.217 Y74.433 E1.13248
G1 X113.177 Y74.272 E.00631
G1 X113.264 Y74.121 E.00661
G1 X116.692 Y72.418 E.14549
G1 X120.043 Y71.159 E.13605
G1 X123.482 Y70.248 E.13519
G1 X126.971 Y69.689 E.13432
G1 X130.469 Y69.482 E.13318
G1 X134.079 Y69.625 E.1373
G1 X134.592 Y69.697 E.01969
G1 X137.597 Y70.126 E.11539
G1 X141.051 Y70.977 E.13519
G1 X144.423 Y72.179 E.13605
G1 X147.841 Y73.797 E.14372
G1 X147.943 Y73.893 E.00533
G1 X147.96 Y74.076 E.00699
G1 X147.925 Y74.143 E.00285
G1 X131.031 Y99.008 E1.14251
G1 X130.902 Y99.1 E.00601
G1 X130.794 Y99.088 E.00417
M204 P1000
G1 X130.388 Y99.282 F12000
G1 E-.64 F2100
;WIPE_START
G1 F9600
G1 X130.459 Y98.735 E-.10099
G1 X130.317 Y98.535 E-.05101
;WIPE_END
G1 E-.008 F2100
G1 Z.4 F720
G1 X125.621 Y102.753 F12000
G1 Z.2 F720
G1 E.8 F1500
M204 P600
;TYPE:Perimeter
G1 F1200
G1 X125.703 Y102.92 E.00704
G1 X125.721 Y103.171 E.0096
G1 X125.641 Y103.422 E.00998
G1 X125.475 Y103.622 E.00988
G1 X125.244 Y103.747 E.00999
G1 X96.478 Y112.737 E1.14544
G1 X96.294 Y112.767 E.00708
G1 X95.954 Y112.688 E.01328
G1 X95.794 Y112.57 E.00753
G1 X95.641 Y112.343 E.01042
G1 X95.597 Y112.181 E.00636
G1 X95.045 Y108.414 E.14472
G1 X94.882 Y104.771 E.13857
G1 X95.076 Y101.243 E.13432
G1 X95.63 Y97.683 E.13692
G1 X96.557 Y94.131 E.13953
G1 X97.815 Y90.754 E.13692
G1 X99.371 Y87.581 E.13432
G1 X101.27 Y84.52 E.13692
G1 X103.51 Y81.611 E.13953
G1 X106.106 Y78.86 E.14377
G1 X106.287 Y78.724 E.00861
G1 X106.47 Y78.659 E.00737
G1 X106.811 Y78.678 E.01298
G1 X107.081 Y78.839 E.01194
G1 X107.154 Y78.921 E.00417
G1 X125.595 Y102.7 E1.14365
M204 P1000
G1 X125.22 Y102.952 F12000
M204 P600
;TYPE:External perimeter
G1 F1200
G1 X125.267 Y103.119 E.00657
G1 X125.185 Y103.269 E.0065
G1 X124.788 Y103.41 E.016
G1 X96.343 Y112.3 E1.13267
G1 X96.168 Y112.284 E.00667
G1 X96.064 Y112.169 E.0059
G1 X95.5 Y108.364 E.14618
G1 X95.339 Y104.796 E.13573
G1 X95.533 Y101.268 E.13432
G1 X96.081 Y97.753 E.13519
G1 X96.986 Y94.29 E.13606
G1 X98.225 Y90.956 E.13519
G1 X99.781 Y87.783 E.13432
G1 X101.658 Y84.761 E.13519
G1 X103.842 Y81.925 E.13606
G1 X106.438 Y79.175 E.14374
G1 X106.56 Y79.108 E.00526
G1 X106.74 Y79.148 E.00701
G1 X106.793 Y79.202 E.00288
G1 X125.183 Y102.905 E1.14023
M204 P1000
G1 X125.392 Y102.973 F12000
G1 E-.64 F2100
;WIPE_START
G1 F9600
G1 X125.267 Y103.119 E-.04768
G1 X125.185 Y103.269 E-.03554
G1 X124.873 Y103.38 E-.06879
;WIPE_END
G1 E-.008 F2100
G1 Z.4 F720
G1 X127.871 Y109.641 F12000
G1 Z.2 F720
G1 E.8 F1500
M204 P600
;TYPE:Perimeter
G1 F1200
G1 X127.908 Y109.71 E.003
G1 X127.935 Y110.25 E.02056
G1 X127.6 Y140.057 E1.1329
G1 X127.554 Y140.294 E.00919
G1 X127.388 Y140.543 E.01135
G1 X127.066 Y140.716 E.01389
G1 X126.799 Y140.723 E.01016
G1 X123.07 Y140.088 E.14375
G1 X119.595 Y139.134 E.13698
G1 X119.447 Y139.081 E.00598
G1 X116.235 Y137.838 E.13089
G1 X113.02 Y136.212 E.13692
G1 X109.984 Y134.272 E.13693
G1 X107.106 Y131.993 E.13953
G1 X104.569 Y129.532 E.13432
G1 X102.244 Y126.78 E.13692
G1 X100.17 Y123.751 E.13953
G1 X98.357 Y120.432 E.14372
G1 X98.285 Y120.232 E.00807
G1 X98.277 Y120.028 E.00778
G1 X98.391 Y119.719 E.01251
G1 X98.639 Y119.497 E.01266
G1 X98.738 Y119.454 E.0041
G1 X127.021 Y109.268 E1.14251
G1 X127.343 Y109.233 E.01231
G1 X127.586 Y109.313 E.00971
G1 X127.787 Y109.483 E.01
G1 X127.843 Y109.588 E.00452
M204 P1000
G1 X127.464 Y109.823 F12000
M204 P600
;TYPE:External perimeter
G1 F1200
G1 X127.478 Y110.245 E.01605
G1 X127.143 Y140.05 E1.13285
G1 X127.072 Y140.212 E.00671
G1 X126.899 Y140.275 E.00701
G1 X123.125 Y139.633 E.1455
